img/hero/links/x.svg

<svg width="18" height="18" viewBox="0 0 18 18" fill="none" xmlns="http://www.w3.org/2000/svg">
<path d="M10.7124 7.62177L17.4133 0H15.8254L10.0071 6.61788L5.35992 0H0L7.02738 10.0074L0 18H1.58799L7.73237 11.0113L12.6401 18H18L10.7121 7.62177H10.7124ZM8.53747 10.0956L7.82546 9.09906L2.16017 1.16971H4.59922L9.17118 7.56895L9.8832 8.56546L15.8262 16.8835H13.3871L8.53747 10.096V10.0956Z" fill="white"/>
</svg>

<svg width="18" height="18" fill="none" xmlns="http://www.w3.org/2000/svg"><path d="M10.712 7.622 17.413 0h-1.588l-5.818 6.618L5.36 0H0l7.027 10.007L0 18h1.588l6.144-6.989L12.64 18H18L10.712 7.622Zm-2.175 2.474-.712-.997L2.16 1.17H4.6l4.571 6.4.712.996 5.943 8.319h-2.439l-4.85-6.788Z" fill="#fff"/></svg>
